verbatimtex
%&latex
\documentclass{article}
\usepackage{color,graphicx}
%\usepackage{CJK}
%\usepackage[dvips]{graphicx,color}
%\usepackage[papersize={840mm,1218mm}]{geometry}
%\usepackage{amsmath}
%\pagestyle{empty}
%\usepackage{color}
%\begin{CJK*}{GBK}{song}
\begin{document}
etex

beginfig(0);
  label.bot(btex {\color{blue}\textsl{Thanks!}} etex, (0,0));
endfig;

verbatimtex
\clearpage
%\end{CJK*}
\end{document}
etex

end

%%%±‡“Î∑Ω∑®: mpost -tex=latex animation.mp
